X:1
T: Dr. and Mrs. Green
C:
R:Strathspey
Q: 128
K:C
M:4/4
L:1/16
|:G2|c4 e3c G2E2 c3G|A3G F2E2 D2C2 B,2G,2|c4 e3c G2E2 c3G|((3A2G2F2) ((3f2e2d2) ((3B2c2d2) G2AB|
c4 e3c G2E2 c2G2|F3E D2C2 B,2A2 G3F|E3G c2B2 AF3 f2d2|((3B2c2d2) Gf3 ec3 c2e2|
a4 e3c f2d2 B^G3|e4 c2A2 dcBA B3e|a3b a2e2 f2d2 Af3|edc2 c2B2 A4B4|
c4 e3c G2E2 cG3|A3B c2d2 ((3B2c2d2) ((3d2e2f2) |e3e g3e af3 d2c2|((3B2c2d2) G3B cC3 C2:|

